X:8
T:No.8 Tommy Peoples Reel
C:reel
M:4/4
L:1/8
K:D
B3 c dBAF|B3 c dfed|B3 c dcdB|ABde fdec:|
dfaf bfaf|dfaf g2 fg|(3agf ge d3 B|ABde fdec:|
